X: 24863
T: Maghera Mountain
R: reel
M: 4/4
K: Gdorian
|:d2cA BGGF|DGGG DGBc|d2cA BGGB|AFcF dFcF|
d2cA BGGF|DGGF GBAG|FGAc fcAc|1 B/c/d AB GABc:|2 B/c/d AB GBAG||
|:FGAc f2ef|g3a gfef|ecgc acgf|ecgc acgc|
BGGF G3B|AFFE FAGA|Bdge fdcA|1 B/c/d AB GBAG:|2 B/c/d AB G4||

